src/img/fb.svg

<svg width="40" height="41" viewBox="0 0 40 41" fill="none" xmlns="http://www.w3.org/2000/svg">
<path d="M24.9999 11.9253H22.4999C21.3949 11.9253 20.335 12.3643 19.5536 13.1457C18.7722 13.9271 18.3333 14.9869 18.3333 16.092V18.592H15.8333V21.9253H18.3333V28.592H21.6666V21.9253H24.1666L24.9999 18.592H21.6666V16.092C21.6666 15.8709 21.7544 15.659 21.9107 15.5027C22.0669 15.3464 22.2789 15.2586 22.4999 15.2586H24.9999V11.9253Z" stroke="white" stroke-linecap="round" stroke-linejoin="round"/>
<circle cx="20" cy="20.2588" r="19.5" stroke="white"/>
</svg>

<svg width="40" height="41" fill="none" xmlns="http://www.w3.org/2000/svg"><path d="M25 11.925h-2.5a4.167 4.167 0 00-4.167 4.167v2.5h-2.5v3.333h2.5v6.667h3.334v-6.667h2.5L25 18.592h-3.333v-2.5a.833.833 0 01.833-.833H25v-3.334z" stroke="#fff" stroke-linecap="round" stroke-linejoin="round"/><circle cx="20" cy="20.259" r="19.5" stroke="#fff"/></svg>
